svg/Pictogram/pictograms-hazard_signs-16.svg

<svg viewBox="0 0 94.264 82.946" width="94.26" xmlns="http://www.w3.org/2000/svg"><path d="m46.36.061c-1.504.232-2.826 1.121-3.582 2.438l-42.11 72.949c-.88 1.533-.895 3.443 0 4.986.896 1.545 2.559 2.514 4.358 2.512h84.22c1.799.002 3.463-.967 4.357-2.512.895-1.543.881-3.453 0-4.986l-42.11-72.949c-1.035-1.803-3.086-2.758-5.135-2.438" fill="#fdee1c"/><g fill="#010101"><path d="m46.744 2.12c-.814.127-1.508.617-1.9 1.301l-42.4 73.45c-.465.809-.466 1.848 0 2.65.473.816 1.348 1.352 2.3 1.35h84.8c.951.002 1.826-.533 2.299-1.35.467-.803.465-1.842 0-2.65l-42.4-73.45c-.545-.947-1.598-1.472-2.7-1.3m.399 8.451l36 63.4h-72.05l36.05-63.4"/><path d="m32.03 46.93l5.744-5.83 24.466 24.55-5.75 5.82-24.46-24.54"/></g><path fill="none" stroke="#010101" stroke-linecap="round" stroke-miterlimit="10" stroke-width="1.237" d="m32.03 46.93l5.744-5.83 24.466 24.55-5.75 5.82-24.46-24.54z"/><path fill="#010101" d="m37.774 71.39l-5.826-5.74 24.542-24.47 5.83 5.75-24.546 24.46"/><path fill="none" stroke="#010101" stroke-linecap="round" stroke-miterlimit="10" stroke-width="1.237" d="m37.774 71.39l-5.826-5.74 24.542-24.47 5.83 5.75-24.546 24.46z"/></svg>

<?xml version="1.0" encoding="iso-8859-1"?>
<!-- Generator: Adobe Illustrator 13.0.2, SVG Export Plug-In . SVG Version: 6.00 Build 14948)  --><svg baseProfile="tiny" height="82.946px" id="Layer_1" space="preserve" version="1.2" viewBox="0 0 94.264 82.946" width="94.264px" x="0px" xmlns="http://www.w3.org/2000/svg" xmlns:xlink="http://www.w3.org/1999/xlink" y="0px">
  <metadata>
    <rdf:RDF xmlns:cc="http://web.resource.org/cc/" xmlns:dc="http://purl.org/dc/elements/1.1/" xmlns:rdf="http://www.w3.org/1999/02/22-rdf-syntax-ns#">
      <cc:Work rdf:about="">
        <dc:title></dc:title>
        <dc:description></dc:description>
        <dc:subject>
          <rdf:Bag>
            <rdf:li></rdf:li>
          </rdf:Bag>
        </dc:subject>
        <dc:publisher>
          <cc:Agent rdf:about="http://openclipart.org">
            <dc:title>Source: Open Clip Art Library, Source: Open Clip Art Library</dc:title>
          </cc:Agent>
        </dc:publisher>
        <dc:creator>
          <cc:Agent>
            <dc:title></dc:title>
          </cc:Agent>
        </dc:creator>
        <dc:rights>
          <cc:Agent>
            <dc:title></dc:title>
          </cc:Agent>
        </dc:rights>
        <dc:date></dc:date>
        <dc:format>image/svg+xml</dc:format>
        <dc:type rdf:resource="http://purl.org/dc/dcmitype/StillImage"/>
        <cc:license rdf:resource="http://en.wikipedia.org/wiki/Public_domain"/>
        <dc:language>en</dc:language>
      </cc:Work>
    </rdf:RDF>
  </metadata>
  <path d="M46.356,0.061c-1.504,0.232-2.826,1.121-3.582,2.438L0.666,75.448c-0.88,1.533-0.895,3.443,0,4.986  c0.896,1.545,2.559,2.514,4.358,2.512h84.217c1.799,0.002,3.463-0.967,4.357-2.512c0.895-1.543,0.881-3.453,0-4.986L51.491,2.499  C50.456,0.696,48.405-0.259,46.356,0.061L46.356,0.061z" fill="#FDEE1C"/>
  <path d="M46.744,2.12c-0.814,0.127-1.508,0.617-1.9,1.301L2.444,76.87c-0.465,0.809-0.466,1.848,0,2.65  c0.473,0.816,1.348,1.352,2.3,1.35h84.8c0.951,0.002,1.826-0.533,2.299-1.35c0.467-0.803,0.465-1.842,0-2.65L49.444,3.42  C48.899,2.473,47.846,1.948,46.744,2.12L46.744,2.12z M47.143,10.571l36,63.4h-72.05L47.143,10.571L47.143,10.571z" fill="#010101"/>
  <polygon fill="#010101" points="32.028,46.93 37.774,41.104 62.237,65.647 56.491,71.473 32.028,46.93 "/>
  <polygon fill="none" points="32.028,46.93   37.774,41.104 62.237,65.647 56.491,71.473 32.028,46.93 " stroke="#010101" stroke-linecap="round" stroke-miterlimit="10" stroke-width="1.237"/>
  <polygon fill="#010101" points="37.774,71.393 31.948,65.647 56.491,41.184 62.317,46.93 37.774,71.393 "/>
  <polygon fill="none" points="37.774,71.393   31.948,65.647 56.491,41.184 62.317,46.93 37.774,71.393 " stroke="#010101" stroke-linecap="round" stroke-miterlimit="10" stroke-width="1.237"/>
</svg>
